X: 11
T:MON AMANT DE SAINT JEAN
M:3/4
L:1/4
Q:1/4=46
K:C
|A/2B/2c c/2c/2c/2c/2 B/2A/2c3/2c/2|B/2c/2d3/2cB/2c/2AA/2|
 A/2B/2c c/2c/2 B/2A/2f3/2d/2|e/2f/2ed/2cB/2A3/2A|!
A/2e/2c/2A/2e/2c/2 A/2e/2ee/2d/2|e/2ff/2d/2e/2 f/2e3/2e|c/2B B/2B/2B/2
B B/2c c/2c/2c/2c|c/2c/2B/2c/2d/2c/2 d/2e3/2e3/2|
e3/2c/2B/2A/2 e3/2c/2B/2A/2|e/2d/2e/2a/2g/2f/2 e3/2e3/2|d3/2B/2c/2d/2 c3
/2A/2B/2c/2|B3/2B/2c/2B/2 A3/2A|
